X: 41
M: 6/8
L: 1/8
K: A
V: 1
E |\
e |\
a2a agf | b2b b2a | gag fge | f2B B2B |\
e2e e^de | f2f fef | gag fgf | e2e "Da Capo"e2 |]
V: 2 clef=bass middle=d
z |\
a2a c'2a | c'2a c'2a | b3 a3 |
e3 e3 | c2A c2A | c2A c2f | e3 e3 |
a2A A2 :| A | c2A f2f | g2e ^c2B | e3
a2c' | b3 b2a | g3 e3 | ^d3 B3 |
e2g b2B | e2e "Da Capo"e2 |]


